X: 31884
T: Peace, Brothers, Peace
R: polka
M: 2/4
K: Gmajor
|:c/|Bg BG|cg c>B|AD F/G/A/F|Ge d/e/d/c/|
B/c/g B2|c/d/g c2|AD F>G|AG G3/2:|
K: Dmaj
|:E/|FG/F/ EF/E/|DF Ad|c>d ec|df A2|
FG/F/ E/G/F/E/|DF A>d|cA Bc|d2 d3/2:|
[2 F2 EF/E/|DF A/B/c/d/|ca B>c|ed d3/2||

